X:67
T:It's a Long Way From Finished
R:reel
C:Paul S. Cranford
O:Cape Breton Island
S:http://www.cranfordpub.com
D:currently unrecorded
B:Silver Apple News, 2001
Z:psc, (re-formatted,updated 9/17/04)
N:
H:                                                        copyrights Cranford Publications, SOCAN
L:1/8
Q:333
M:C|
K:EAeo
B,(E ~E2) B,edB|ABdA BAFD|B,(E ~E2) GedB|ABdF ~E3 A|
BEeE BedB|ABdA BAFd|e(B ~B2) dABe|1dBAF E2 ED:|2dBAF E2 E||
|:d|eBgB ebag|(f/g/a) da bdad|e(B ~B2) gbag|agfg e2 ef|
eBgB ebag|(f/g/a) da bdad|e(B ~B2) dABe|1dBAF E2 E:|2dBAF E2 ED|]
